components/2.0/icon/icons/icon-line-jump-22px.svg

<svg width="22" height="22" xmlns="http://www.w3.org/2000/svg"><path d="M16 12c-.4-1.6-1.5-3.5-4-4V2h-2v6c-2.5.5-3.6 2.5-4 4H2v2h6v-1c0-.4 0-2.4 2-3v10h2V10c2 .6 2 2.5 2 3v1h6v-2h-4z" fill="#3D4752" fill-rule="evenodd"/></svg>

<?xml version="1.0" encoding="UTF-8" standalone="no"?>
<svg width="22px" height="22px" viewBox="0 0 22 22" version="1.1" xmlns="http://www.w3.org/2000/svg" xmlns:xlink="http://www.w3.org/1999/xlink" xmlns:sketch="http://www.bohemiancoding.com/sketch/ns">
    <!-- Generator: Sketch 3.4.4 (17249) - http://www.bohemiancoding.com/sketch -->
    <title>icon-line-jump-22px</title>
    <desc>Created with Sketch.</desc>
    <defs></defs>
    <g id="22px" stroke="none" stroke-width="1" fill="none" fill-rule="evenodd" sketch:type="MSPage">
        <g id="icon-line-jump-22px" sketch:type="MSArtboardGroup" fill="#3D4752">
            <path d="M15.9,12 C15.6,10.4 14.5,8.5 12,8.1 L12,2 L10,2 L10,8.1 C7.5,8.5 6.4,10.5 6.1,12 L2,12 L2,14 L8,14 L8,13 C8,12.6 8.1,10.6 10,10.1 L10,20 L12,20 L12,10.1 C13.9,10.6 14,12.5 14,13 L14,14 L20,14 L20,12 L15.9,12 L15.9,12 Z" id="Shape" sketch:type="MSShapeGroup"></path>
        </g>
    </g>
</svg>
